X:1
T:No 12. TTa.05
T:No 12. TTa.05
T:By Wm Howard
C:By Wm Howard
L:1/8
Q:1/4=120
M:3/4
K:C
V:1 treble 
V:1
 c'2 g2 e2 | g2 e2 c2 | cBcdef | gagfed | cBcdef | g2 G2 z2 | g4 b>g | d'4 b>g | ^f2 f>e f2 | %9
 g2 d2 z2 | g4 b>g | d'4 b>g | ^f2 f>e f2 | g2 z2 z2 | .G2 .G2 .G2 | .e2 .e2 .e2 | .A2 .A2 .A2 | %17
 .d2 .d2 .d2 | .G2 .G2 .G2 | cBcA d2 | .G2 .G2 .G2 | G2 z2 z2 :: g2 d2 B2 | d2 B2 G2 | G^FGABc | %25
 dedcBA | G^FGABc | d2 D2 z2 | d4 ^f>d | d>^c c4 | a4 ^fd | =c>B B4 | d4 ^f>d | e4 g>e | %34
 B2 B>A B2 | c2 G2 z2 | d4 f>d | e4 g>c | d2 fdec | e2 d2 z2 | .c2 .c2 .c2 | .a2 .a2 .a2 | %42
 .d2 .d2 .d2 | .g2 .g2 .g2 | .c2 .c2 .c2 | fefd g2 | .c2 .c2 .c2 | c2 z2 z2 :| %48

